src/assets/images/currency/MKR.svg

<svg viewBox="0 0 600 600" xmlns="http://www.w3.org/2000/svg" xmlns:xlink="http://www.w3.org/1999/xlink"><linearGradient id="a" gradientTransform="matrix(1 0 0 -1 0 602)" gradientUnits="userSpaceOnUse" x1="300" x2="300" y1="602" y2="2"><stop offset="0" stop-color="#4fa89b"/><stop offset="1" stop-color="#6acebb"/></linearGradient><circle cx="300" cy="300" fill="url(#a)" r="300"/><path d="m152.34 390v-141.2l107.08 80.59v60.61h27.33v-66.3a15.94 15.94 0 0 0 -6.35-12.7l-129.86-97.77a16 16 0 0 0 -25.54 12.77v164zm296.14 0v-141.2l-107.08 80.59v60.61h-27.33v-66.3a15.94 15.94 0 0 1 6.35-12.7l129.86-97.73a16 16 0 0 1 25.54 12.73v164z" fill="#fff"/></svg>

<svg xmlns="http://www.w3.org/2000/svg" xmlns:xlink="http://www.w3.org/1999/xlink" viewBox="0 0 600 600"><defs><style>.cls-1{fill:url(#linear-gradient)}.cls-2{fill:#fff}</style><linearGradient id="linear-gradient" x1="300" x2="300" y1="602" y2="2" gradientTransform="matrix(1, 0, 0, -1, 0, 602)" gradientUnits="userSpaceOnUse"><stop offset="0" stop-color="#4fa89b"/><stop offset="1" stop-color="#6acebb"/></linearGradient></defs><title>Asset 1</title><g id="Layer_2" data-name="Layer 2"><g id="Layer_1-2" data-name="Layer 1"><circle cx="300" cy="300" r="300" class="cls-1"/><path d="M152.34,390V248.8l107.08,80.59V390h27.33V323.7A15.94,15.94,0,0,0,280.4,311L150.54,213.23A16,16,0,0,0,125,226V390Zm296.14,0V248.8L341.4,329.39V390H314.07V323.7A15.94,15.94,0,0,1,320.42,311l129.86-97.73A16,16,0,0,1,475.82,226V390Z" class="cls-2"/></g></g></svg>
